X: 055
T: Turks Head
B: 204 Favourite Country Dances
N: Published by Straight & Skillern, London ca.1775
F: http://imslp.org/wiki/204_Favourite_Country_Dances_(Various) p.28 #55
Z: 2014 John Chambers <jc:trillian.mit.edu>
M: 6/8
L: 1/8
K: G
% - - - - - - - - - - - - - - - - - - - - - - - - -
|:\
G2B BcA | G2d dec | B2d efg | cAG FED |\
G2B BcA | G2d dec | Bcd efg | cAd G3 :|
|:\
gab afd | efg dcB | gab afd | efg dcB |\
B^cd efg | fga a2a | aba gfe | de^c BcA "Da Capo"y|]
% - - - - - - - - - - - - - - - - - - - - - - - - -
%%begintext align
%% Cast off 2 Cu. cast up again cross over 1 Cu.
%% Right & Left
%%endtext

%%sep 1 1 500
%%sep 1 1 500
